src/assets/images/icon-disque.svg

<svg width="20" height="20" viewBox="0 0 20 20" fill="none" xmlns="http://www.w3.org/2000/svg">
<path d="M11.6667 10C11.6667 10.9192 10.92 11.6667 10 11.6667C9.08083 11.6667 8.33333 10.9192 8.33333 10C8.33333 9.08083 9.08083 8.33333 10 8.33333C10.92 8.33333 11.6667 9.08083 11.6667 10ZM20 10C20 15.5225 15.5225 20 10 20C4.4775 20 0 15.5225 0 10C0 4.4775 4.4775 0 10 0C15.5225 0 20 4.4775 20 10ZM7.67083 16.2558C5.8625 15.5783 4.42667 14.1392 3.755 12.3275L2.905 12.4333C3.65167 14.6233 5.37833 16.3533 7.565 17.105L7.67083 16.2558ZM7.8875 14.525C6.82833 14.0283 5.97167 13.1717 5.475 12.1117L4.6075 12.22C5.19833 13.6542 6.34417 14.8008 7.78 15.3925L7.8875 14.525ZM13.3333 10C13.3333 8.15917 11.8408 6.66667 10 6.66667C8.15917 6.66667 6.66667 8.15917 6.66667 10C6.66667 11.8408 8.15917 13.3333 10 13.3333C11.8408 13.3333 13.3333 11.8408 13.3333 10ZM15.3942 7.77917C14.8017 6.34417 13.6558 5.19833 12.2217 4.60667L12.1125 5.47417C13.1717 5.97083 14.0283 6.8275 14.5258 7.8875L15.3942 7.77917V7.77917ZM17.0833 7.56833C16.3317 5.39333 14.6092 3.675 12.4317 2.92833L12.3242 3.7775C14.1258 4.45083 15.555 5.8775 16.2333 7.675L17.0833 7.56833Z" fill="#303030"/>
</svg>

<svg width="20" height="20" fill="none" xmlns="http://www.w3.org/2000/svg"><path d="M11.67 10a1.67 1.67 0 1 1-3.34 0 1.67 1.67 0 0 1 3.34 0ZM20 10a10 10 0 1 1-20 0 10 10 0 0 1 20 0ZM7.67 16.26a6.69 6.69 0 0 1-3.92-3.93l-.85.1a7.51 7.51 0 0 0 4.67 4.68l.1-.85Zm.22-1.74a5.03 5.03 0 0 1-2.42-2.4l-.86.1a5.85 5.85 0 0 0 3.17 3.17l.1-.87ZM13.33 10a3.33 3.33 0 1 0-6.66 0 3.33 3.33 0 0 0 6.66 0Zm2.06-2.22a5.86 5.86 0 0 0-3.17-3.17l-.1.86a5.03 5.03 0 0 1 2.4 2.42l.87-.11Zm1.7-.21a7.5 7.5 0 0 0-4.66-4.64l-.1.85c1.8.67 3.22 2.1 3.9 3.9l.85-.11Z" fill="#303030"/></svg>
